src/static/logos/periscope.svg

<?xml version="1.0" encoding="UTF-8" standalone="no"?>
<svg width="256px" height="256px" viewBox="0 0 256 256" version="1.1" xmlns="http://www.w3.org/2000/svg" xmlns:xlink="http://www.w3.org/1999/xlink" preserveAspectRatio="xMidYMid">
	<g>
		<path d="M76.8483556,31.2888889 L63.2092444,17.6497778 C65.2458667,16.4494222 67.3194667,15.3116444 69.4300444,14.2222222 L93.9150222,14.2222222 L76.8483556,31.2888889 L76.8483556,31.2888889 Z M93.9150222,14.2222222 L110.981689,31.2888889 L128.048356,14.2222222 L93.9150222,14.2222222 L93.9150222,14.2222222 L93.9150222,14.2222222 Z M106.251378,1.88586667 C99.5015111,3.04355556 92.9365333,4.73031111 86.5905778,6.90062222 L93.9150222,14.2222222 L106.251378,1.88586667 L106.251378,1.88586667 Z M110.981689,31.2888889 L76.8483556,31.2888889 L93.9150222,48.3555556 L110.981689,31.2888889 L110.981689,31.2888889 Z M127.900444,48.3783111 L127.9232,48.3555556 L127.880533,48.3555556 L93.7898667,48.3555556 L93.7898667,48.3555556 L93.8325333,48.3555556 L93.8126222,48.3754667 L107.042133,61.6049778 C110.287644,60.5667556 113.635556,59.7646222 117.065956,59.2099556 L127.900444,48.3783111 L127.900444,48.3783111 Z M59.7162667,48.3783111 L59.7361778,48.3555556 L59.6935111,48.3555556 L27.8784,48.3555556 C27.5399111,48.7793778 27.2071111,49.2032 26.8743111,49.6327111 L42.6695111,65.4222222 L59.7162667,48.3783111 L59.7162667,48.3783111 Z M230.4512,82.4888889 L247.517867,99.5555556 L251.807289,95.2661333 C250.658133,90.9112889 249.272889,86.6503111 247.691378,82.4888889 L230.4512,82.4888889 L230.4512,82.4888889 L230.4512,82.4888889 Z M230.4512,82.4888889 L196.317867,82.4888889 L196.317867,82.4888889 L213.384533,99.5555556 L230.4512,82.4888889 L230.4512,82.4888889 Z M25.6455111,150.755556 L2.10488889,150.755556 C2.95253333,155.480178 4.04764444,160.116622 5.39875556,164.644978 L8.57884444,167.822222 L25.6455111,150.755556 L25.6455111,150.755556 Z M247.520711,167.822222 L247.520711,167.822222 L213.387378,167.822222 L230.454044,184.888889 L247.520711,167.822222 L247.520711,167.822222 Z M230.4512,184.888889 L238.398578,192.836267 C239.926044,190.242133 241.362489,187.593956 242.710756,184.888889 L230.4512,184.888889 L230.4512,184.888889 L230.4512,184.888889 Z M196.317867,184.888889 L213.384533,201.955556 L230.4512,184.888889 L196.317867,184.888889 L196.317867,184.888889 L196.317867,184.888889 Z M196.317867,219.022222 L162.184533,219.022222 L179.2512,236.088889 L196.317867,219.022222 L196.317867,219.022222 Z" fill="#EEBB1C"></path>
		<path d="M128.0512,14.2222222 L162.184533,14.2222222 L145.117867,31.2888889 L128.0512,14.2222222 L128.0512,14.2222222 L128.0512,14.2222222 Z M162.181689,14.2222222 L179.248356,31.2888889 L192.887467,17.6497778 C190.850844,16.4494222 188.7744,15.3116444 186.666667,14.2222222 L162.181689,14.2222222 L162.181689,14.2222222 L162.181689,14.2222222 Z M141.559467,0.713955556 C137.119289,0.247466667 132.613689,0 128.048356,0 C123.483022,0 118.980267,0.247466667 114.540089,0.713955556 L128.0512,14.2222222 L141.559467,0.713955556 L141.559467,0.713955556 Z M169.503289,6.90346667 C163.160178,4.73315556 156.5952,3.0464 149.845333,1.88586667 L162.184533,14.2222222 L169.503289,6.90346667 L169.503289,6.90346667 Z M196.317867,48.3555556 L212.670578,32.0028444 C212.397511,31.7639111 212.1216,31.5278222 211.845689,31.2888889 L179.2512,31.2888889 L196.317867,48.3555556 L196.317867,48.3555556 Z M76.8483556,31.2888889 L44.2510222,31.2888889 C43.9779556,31.5278222 43.7020444,31.7639111 43.4289778,32.0028444 L59.7816889,48.3555556 L76.8483556,31.2888889 L76.8483556,31.2888889 Z M42.7150222,65.4222222 L16.3982222,65.4222222 C15.4567111,67.1004444 14.5550222,68.8042667 13.6874667,70.528 L25.6483556,82.4888889 L42.7150222,65.4222222 L42.7150222,65.4222222 Z M127.900444,48.3783111 L138.615467,59.0933333 C142.142578,59.6252444 145.584356,60.4131556 148.918044,61.4542222 L161.993956,48.3783111 L162.013867,48.3555556 L161.9712,48.3555556 L127.877689,48.3555556 L127.877689,48.3555556 L127.920356,48.3555556 L127.900444,48.3783111 L127.900444,48.3783111 Z M93.7898667,48.3555556 L59.6963556,48.3555556 L59.6963556,48.3555556 L59.7390222,48.3555556 L59.7191111,48.3754667 L76.7630222,65.4222222 L93.8097778,48.3783111 L93.8296889,48.3555556 L93.7898667,48.3555556 L93.7898667,48.3555556 Z M191.803733,99.5555556 C194.139022,104.760889 195.854222,110.299022 196.855467,116.084622 L213.384533,99.5555556 L213.384533,99.5555556 L191.803733,99.5555556 L191.803733,99.5555556 Z M230.454044,116.622222 L247.520711,99.5555556 L247.520711,99.5555556 L213.387378,99.5555556 L230.454044,116.622222 L230.454044,116.622222 Z M8.57884444,99.5555556 L25.6455111,116.622222 L42.7121778,99.5555556 L42.7121778,99.5555556 L8.57884444,99.5555556 L8.57884444,99.5555556 Z M42.7150222,99.5555556 L59.5114667,116.354844 C60.5070222,110.472533 62.2392889,104.843378 64.6144,99.5555556 L42.7150222,99.5555556 L42.7150222,99.5555556 Z M196.317867,150.755556 L194.065067,150.755556 C193.641244,151.978667 193.188978,153.184711 192.702578,154.373689 L196.317867,150.755556 L196.317867,150.755556 Z M25.6455111,150.755556 L42.7121778,167.822222 L59.7788444,150.755556 L25.6455111,150.755556 L25.6455111,150.755556 Z M230.454044,150.755556 L247.520711,133.688889 L213.387378,133.688889 L230.454044,150.755556 L230.454044,150.755556 Z M255.3344,141.505422 C255.604622,138.922667 255.789511,136.317156 255.903289,133.688889 L247.517867,133.688889 L255.3344,141.505422 L255.3344,141.505422 Z M196.317867,150.755556 L213.384533,133.688889 L197.646222,133.688889 C197.213867,139.005156 196.195556,144.156444 194.633956,149.071644 L196.317867,150.755556 L196.317867,150.755556 Z M25.6455111,116.622222 L42.7121778,133.688889 L59.3948444,117.006222 C59.4147556,116.878222 59.4432,116.750222 59.4631111,116.622222 L25.6455111,116.622222 L25.6455111,116.622222 Z M249.147733,169.449244 C249.332622,168.9088 249.520356,168.368356 249.699556,167.822222 L247.520711,167.822222 L249.147733,169.449244 L249.147733,169.449244 Z M145.117867,201.955556 L162.184533,219.022222 L179.2512,201.955556 L179.2512,201.955556 L145.117867,201.955556 L145.117867,201.955556 Z M42.7150222,201.955556 L59.7816889,219.022222 L76.8483556,201.955556 L76.8483556,201.955556 L42.7150222,201.955556 L42.7150222,201.955556 Z M145.117867,236.088889 L110.984533,236.088889 L128.0512,253.155556 L145.117867,236.088889 L145.117867,236.088889 Z M76.8483556,236.088889 L91.4090667,250.6496 C92.7032889,251.036444 94.0032,251.411911 95.3144889,251.758933 L110.981689,236.088889 L76.8483556,236.088889 L76.8483556,236.088889 Z M164.6592,187.3664 L179.2512,201.955556 L196.317867,184.888889 L168.385422,184.888889 C167.168,185.750756 165.930667,186.584178 164.6592,187.3664 L164.6592,187.3664 Z M145.115022,201.955556 L154.578489,192.492089 C149.902222,194.412089 144.9728,195.831467 139.855644,196.696178 L145.115022,201.955556 L145.115022,201.955556 Z M13.3859556,184.888889 C14.7313778,187.5968 16.1706667,190.244978 17.6981333,192.836267 L25.6455111,184.888889 L13.3859556,184.888889 L13.3859556,184.888889 Z M162.181689,219.022222 L128.048356,219.022222 L145.115022,236.088889 L162.181689,219.022222 L162.181689,219.022222 Z M206.444089,229.148444 C210.500267,225.999644 214.3744,222.628978 218.020978,219.022222 L196.317867,219.022222 L206.444089,229.148444 L206.444089,229.148444 Z M93.9150222,219.022222 L110.981689,236.088889 L128.048356,219.022222 L93.9150222,219.022222 L93.9150222,219.022222 Z" fill="#EB4326"></path>
		<path d="M128.0512,48.3555556 L110.984533,31.2888889 L145.117867,31.2888889 L128.0512,48.3555556 L128.0512,48.3555556 Z M179.2512,31.2888889 L145.117867,31.2888889 L162.184533,48.3555556 L179.2512,31.2888889 L179.2512,31.2888889 Z M230.454044,82.4888889 L242.414933,70.528 C241.544533,68.8042667 240.642844,67.1004444 239.701333,65.4222222 L213.387378,65.4222222 L230.454044,82.4888889 L230.454044,82.4888889 Z M179.2512,65.4222222 L158.842311,65.4222222 C163.299556,67.6152889 167.486578,70.2748444 171.346489,73.3269333 L179.2512,65.4222222 L179.2512,65.4222222 Z M179.2512,65.4222222 L196.317867,82.4888889 L213.384533,65.4222222 L179.2512,65.4222222 L179.2512,65.4222222 Z M76.8483556,65.4222222 L84.8952889,73.4691556 C88.8064,70.3573333 93.0503111,67.6494222 97.5758222,65.4250667 L76.8483556,65.4222222 L76.8483556,65.4222222 Z M42.7150222,65.4222222 L59.7816889,82.4888889 L76.8483556,65.4222222 L42.7150222,65.4222222 L42.7150222,65.4222222 Z M196.067556,48.3555556 L196.107378,48.3555556 L196.087467,48.3754667 L213.134222,65.4222222 L229.088711,49.4677333 C228.798578,49.0951111 228.508444,48.7253333 228.215467,48.3555556 L196.067556,48.3555556 L196.067556,48.3555556 L196.067556,48.3555556 Z M161.993956,48.3783111 L179.040711,65.4222222 L196.087467,48.3783111 L196.107378,48.3555556 L196.067556,48.3555556 L161.974044,48.3555556 L161.974044,48.3555556 L162.016711,48.3555556 L161.993956,48.3783111 L161.993956,48.3783111 Z M254.162489,106.197333 C253.778489,103.9616 253.334756,101.751467 252.836978,99.5555556 L247.520711,99.5555556 L254.162489,106.197333 L254.162489,106.197333 Z M8.57884444,99.5555556 L3.25973333,99.5555556 C2.76195556,101.748622 2.31822222,103.964444 1.93422222,106.200178 L8.57884444,99.5555556 L8.57884444,99.5555556 L8.57884444,99.5555556 Z M196.317867,82.4888889 L180.918044,82.4888889 C183.318756,85.2650667 185.506133,88.2261333 187.448889,91.3550222 L196.317867,82.4888889 L196.317867,82.4888889 Z M25.6455111,82.4888889 L8.40817778,82.4888889 C6.82382222,86.6503111 5.44142222,90.9112889 4.28942222,95.2689778 L8.57884444,99.5555556 L25.6455111,82.4888889 L25.6455111,82.4888889 Z M75.5000889,82.4888889 L59.7816889,82.4888889 L59.7816889,82.4888889 L68.8440889,91.5512889 C70.8152889,88.3484444 73.0481778,85.3248 75.5000889,82.4888889 L75.5000889,82.4888889 Z M59.7788444,82.4888889 L25.6455111,82.4888889 L25.6426667,82.4888889 L42.7093333,99.5555556 L59.7788444,82.4888889 L59.7788444,82.4888889 Z M247.517867,167.822222 L250.695111,164.644978 C252.046222,160.116622 253.141333,155.480178 253.988978,150.755556 L230.4512,150.755556 L247.517867,167.822222 L247.517867,167.822222 Z M196.317867,150.755556 L213.384533,167.822222 L230.4512,150.755556 L196.317867,150.755556 L196.317867,150.755556 Z M59.7788444,150.755556 L63.9260444,154.902756 C63.3543111,153.543111 62.8394667,152.155022 62.3530667,150.755556 L59.7788444,150.755556 L59.7788444,150.755556 Z M42.7150222,133.688889 L59.7816889,150.755556 L61.7045333,148.832711 C60.1856,143.991467 59.1985778,138.919822 58.7719111,133.688889 L42.7150222,133.688889 L42.7150222,133.688889 Z M42.7150222,133.688889 L8.58168889,133.688889 L25.6483556,150.755556 L42.7150222,133.688889 L42.7150222,133.688889 Z M0.190577778,133.688889 C0.3072,136.314311 0.489244444,138.922667 0.762311111,141.508267 L8.57884444,133.688889 L0.190577778,133.688889 L0.190577778,133.688889 Z M213.384533,133.688889 L230.4512,116.622222 L196.955022,116.622222 C196.997689,116.881067 197.054578,117.137067 197.091556,117.398756 L213.384533,133.688889 L213.384533,133.688889 Z M247.517867,133.688889 L255.977244,125.229511 C255.917511,122.336711 255.766756,119.466667 255.516444,116.622222 L230.4512,116.622222 L247.517867,133.688889 L247.517867,133.688889 Z M25.6455111,116.622222 L0.580266667,116.622222 C0.329955556,119.466667 0.1792,122.336711 0.119466667,125.229511 L8.57884444,133.688889 L25.6455111,116.622222 L25.6455111,116.622222 Z M196.317867,184.888889 L213.384533,167.822222 L213.384533,167.822222 L185.349689,167.822222 C184.516267,169.014044 183.645867,170.177422 182.741333,171.3152 L196.317867,184.888889 L196.317867,184.888889 Z M73.5345778,171.136 C72.6812444,170.055111 71.8592,168.951467 71.0684444,167.822222 L42.7150222,167.822222 L59.7816889,184.888889 L73.5345778,171.136 L73.5345778,171.136 Z M42.7121778,167.822222 L8.57884444,167.822222 L25.6455111,184.888889 L42.7121778,167.822222 L42.7121778,167.822222 L42.7121778,167.822222 Z M8.57884444,167.822222 L6.4,167.822222 C6.57635556,168.368356 6.76408889,168.9088 6.95182222,169.452089 L8.57884444,167.822222 L8.57884444,167.822222 L8.57884444,167.822222 Z M224.048356,212.619378 C227.0464,209.223111 229.859556,205.661867 232.487822,201.955556 L213.384533,201.955556 L224.048356,212.619378 L224.048356,212.619378 Z M110.981689,201.955556 L128.048356,219.022222 L145.115022,201.955556 L145.115022,201.955556 L110.981689,201.955556 L110.981689,201.955556 Z M179.2512,201.955556 L196.317867,219.022222 L213.384533,201.955556 L213.384533,201.955556 L179.2512,201.955556 L179.2512,201.955556 Z M76.8483556,201.955556 L93.9150222,219.022222 L110.981689,201.955556 L110.981689,201.955556 L76.8483556,201.955556 L76.8483556,201.955556 Z M42.7121778,201.955556 L23.6088889,201.955556 C26.2371556,205.661867 29.0531556,209.220267 32.0483556,212.622222 L42.7121778,201.955556 L42.7121778,201.955556 L42.7121778,201.955556 Z M145.117867,236.088889 L160.787911,251.758933 C162.0992,251.411911 163.396267,251.036444 164.693333,250.6496 L179.2512,236.088889 L145.117867,236.088889 L145.117867,236.088889 Z M185.5232,242.363733 C189.320533,240.452267 193.004089,238.355911 196.573867,236.088889 L179.2512,236.088889 L185.5232,242.363733 L185.5232,242.363733 Z M59.5228444,236.088889 C63.0897778,238.355911 66.7761778,240.452267 70.5735111,242.363733 L76.8483556,236.088889 L59.5228444,236.088889 L59.5228444,236.088889 Z M110.981689,201.955556 L116.289422,196.647822 C111.075556,195.746133 106.057956,194.2784 101.307733,192.2816 L110.981689,201.955556 L110.981689,201.955556 Z M59.7816889,184.888889 L59.7816889,184.888889 L76.8483556,201.955556 L91.5626667,187.241244 C90.3594667,186.496 89.1847111,185.705244 88.0327111,184.888889 L59.7816889,184.888889 L59.7816889,184.888889 Z M25.6483556,184.888889 L25.6483556,184.888889 L42.7150222,201.955556 L59.7816889,184.888889 L25.6483556,184.888889 L25.6483556,184.888889 Z M76.8483556,236.088889 L93.9150222,219.022222 L59.7816889,219.022222 L76.8483556,236.088889 L76.8483556,236.088889 Z M38.0757333,219.022222 C41.7223111,222.628978 45.5964444,225.999644 49.6526222,229.148444 L59.7788444,219.022222 L38.0757333,219.022222 L38.0757333,219.022222 Z M130.821689,255.928889 C139.062044,255.752533 147.111822,254.816711 154.897067,253.155556 L128.045511,253.155556 L130.821689,255.928889 L130.821689,255.928889 Z M101.1968,253.155556 C108.984889,254.816711 117.034667,255.755378 125.275022,255.928889 L128.048356,253.155556 L101.1968,253.155556 L101.1968,253.155556 Z" fill="#A2509E"></path>
		<path d="M71.1594667,128 C71.1594667,159.419733 96.6286222,184.888889 128.048356,184.888889 C159.465244,184.888889 184.937244,159.419733 184.937244,128 L71.1594667,128 L71.1594667,128 Z" opacity="0.4" fill="#A2509E"></path>
	</g>
</svg>

<svg width="256" height="256" xmlns="http://www.w3.org/2000/svg" preserveAspectRatio="xMidYMid"><path d="M76.848 31.289L63.21 17.649a126.6 126.6 0 016.221-3.427h24.485L76.848 31.29zm17.067-17.067l17.067 17.067 17.066-17.067H93.915zm12.336-12.336A127.144 127.144 0 0086.591 6.9l7.324 7.321 12.336-12.336zm4.73 29.403H76.849l17.067 17.067 17.067-17.067zm16.92 17.09l.022-.023H93.79h.043l-.02.02 13.23 13.229a69.07 69.07 0 0110.023-2.395L127.9 48.378zm-68.185 0l.02-.023H27.878c-.338.423-.67.847-1.004 1.277l15.796 15.79 17.046-17.045zm170.735 34.11l17.067 17.067 4.29-4.29a127.66 127.66 0 00-4.117-12.777h-17.24zm0 0h-34.133l17.067 17.067 17.066-17.067zM25.646 150.756H2.105a127.015 127.015 0 003.294 13.889l3.18 3.177 17.067-17.066zm221.875 17.066h-34.134l17.067 17.067 17.067-17.067zm-17.07 17.067l7.948 7.947a129.556 129.556 0 004.312-7.947h-12.26zm-34.133 0l17.067 17.067 17.066-17.067h-34.133zm0 34.133h-34.133l17.066 17.067 17.067-17.067z" fill="#EEBB1C"/><path d="M128.051 14.222h34.134L145.118 31.29 128.05 14.222zm34.13 0l17.067 17.067 13.64-13.64a127.92 127.92 0 00-6.221-3.427h-24.485zM141.56.714C137.12.247 132.614 0 128.05 0c-4.566 0-9.069.247-13.509.714l13.511 13.508L141.56.714zm27.944 6.19a127.356 127.356 0 00-19.658-5.018l12.34 12.336 7.318-7.319zm26.815 41.452l16.353-16.353c-.273-.24-.55-.475-.825-.714H179.25l17.067 17.067zM76.848 31.289H44.251c-.273.239-.549.475-.822.714l16.353 16.353 17.066-17.067zM42.715 65.422H16.398a128.551 128.551 0 00-2.71 5.106l11.96 11.96 17.067-17.066zM127.9 48.378l10.715 10.715a69.125 69.125 0 0110.303 2.361l13.076-13.076.02-.022h-34.136.042l-.02.022zm-34.11-.022H59.696h.043l-.02.02 17.044 17.046L93.81 48.378l.02-.022h-.04zm98.014 51.2a69.16 69.16 0 015.051 16.529l16.53-16.53h-21.581zm38.65 17.066l17.067-17.066h-34.134l17.067 17.066zM8.579 99.556l17.067 17.066 17.066-17.066H8.58zm34.136 0l16.796 16.799a69.109 69.109 0 015.103-16.8H42.715zm153.603 51.2h-2.253a70.594 70.594 0 01-1.362 3.618l3.615-3.618zm-170.672 0l17.066 17.066 17.067-17.066H25.646zm204.808 0l17.067-17.067h-34.134l17.067 17.067zm24.88-9.25c.27-2.583.456-5.189.57-7.817h-8.386l7.816 7.816zm-59.016 9.25l17.067-17.067h-15.739a69.316 69.316 0 01-3.012 15.383l1.684 1.684zM25.646 116.622l17.066 17.067 16.683-16.683c.02-.128.048-.256.068-.384H25.646zm223.502 52.827c.185-.54.372-1.08.552-1.627h-2.18l1.628 1.627zm-104.03 32.507l17.067 17.066 17.066-17.066h-34.133zm-102.403 0l17.067 17.066 17.066-17.066H42.715zm102.403 34.133h-34.133l17.066 17.067 17.067-17.067zm-68.27 0l14.561 14.56c1.294.387 2.594.763 3.905 1.11l15.668-15.67H76.848zm87.811-48.723l14.592 14.59 17.067-17.067h-27.933a69.364 69.364 0 01-3.726 2.477zm-19.544 14.59l9.463-9.464a69.013 69.013 0 01-14.722 4.204l5.259 5.26zM13.386 184.889a126.425 126.425 0 004.312 7.947l7.948-7.947h-12.26zm148.796 34.133h-34.134l17.067 17.067 17.067-17.067zm44.262 10.126a128.384 128.384 0 0011.577-10.126h-21.703l10.126 10.126zM93.915 219.022l17.067 17.067 17.066-17.067H93.915z" fill="#EB4326"/><path d="M128.051 48.356l-17.066-17.067h34.133L128.05 48.356zm51.2-17.067h-34.133l17.067 17.067 17.066-17.067zm51.203 51.2l11.96-11.961a132.445 132.445 0 00-2.713-5.106h-26.314l17.067 17.067zm-51.203-17.067h-20.409a69.982 69.982 0 0112.504 7.905l7.905-7.905zm0 0l17.067 17.067 17.067-17.067H179.25zm-102.403 0l8.047 8.047a69.897 69.897 0 0112.68-8.044l-20.727-.003zm-34.133 0L59.782 82.49l17.066-17.067H42.715zm153.353-17.066h.04l-.02.02 17.046 17.046 15.955-15.954c-.29-.373-.58-.743-.874-1.112h-32.147zm-34.074.022l17.047 17.044 17.046-17.044.02-.022h-34.133.043l-.023.022zm92.168 57.82a128.11 128.11 0 00-1.325-6.642h-5.316l6.641 6.641zM8.58 99.555H3.26a127.622 127.622 0 00-1.325 6.644l6.645-6.644zm187.739-17.067h-15.4a70.05 70.05 0 016.53 8.866l8.87-8.866zm-170.672 0H8.408a127.49 127.49 0 00-4.119 12.78l4.29 4.287 17.067-17.067zm49.854 0H59.782l9.062 9.062a69.812 69.812 0 016.656-9.06zm-15.721 0H25.643l17.066 17.067 17.07-17.067zm187.739 85.333l3.177-3.177a127.015 127.015 0 003.294-13.89h-23.538l17.067 17.067zm-51.2-17.066l17.067 17.066 17.066-17.066h-34.133zm-136.54 0l4.148 4.147a69.85 69.85 0 01-1.573-4.147H59.78zm-17.063-17.067l17.067 17.067 1.923-1.923a69.391 69.391 0 01-2.933-15.144H42.715zm0 0H8.582l17.066 17.067 17.067-17.067zm-42.524 0c.116 2.625.298 5.234.571 7.82l7.817-7.82H.19zm213.194 0l17.066-17.067h-33.496c.043.26.1.515.137.777l16.293 16.29zm34.133 0l8.46-8.46c-.06-2.892-.211-5.762-.462-8.607h-25.065l17.067 17.067zM25.646 116.622H.58c-.25 2.845-.4 5.715-.46 8.608l8.459 8.459 17.067-17.067zm170.672 68.267l17.067-17.067H185.35a70.944 70.944 0 01-2.609 3.493l13.577 13.574zM73.535 171.136a71.946 71.946 0 01-2.467-3.314H42.715l17.067 17.067 13.753-13.753zm-30.823-3.314H8.58l17.067 17.067 17.066-17.067zm-34.133 0H6.4c.176.546.364 1.087.552 1.63l1.627-1.63zm215.47 44.797a127.892 127.892 0 008.439-10.663h-19.103l10.663 10.663zm-113.067-10.663l17.066 17.066 17.067-17.066h-34.133zm68.27 0l17.066 17.066 17.067-17.066H179.25zm-102.404 0l17.067 17.066 17.067-17.066H76.848zm-34.136 0H23.61a129.479 129.479 0 008.44 10.666l10.663-10.666zm102.406 34.133l15.67 15.67c1.311-.347 2.608-.723 3.905-1.11l14.558-14.56h-34.133zm40.405 6.275a127.775 127.775 0 0011.05-6.275h-17.322l6.272 6.275zm-126-6.275a127.351 127.351 0 0011.05 6.275l6.275-6.275H59.523zm51.459-34.133l5.307-5.308a68.944 68.944 0 01-14.981-4.366l9.674 9.674zm-51.2-17.067l17.066 17.067 14.715-14.715a68.512 68.512 0 01-3.53-2.352H59.782zm-34.134 0l17.067 17.067 17.067-17.067H25.648zm51.2 51.2l17.067-17.067H59.782l17.066 17.067zm-38.772-17.067a128.466 128.466 0 0011.577 10.126l10.126-10.126H38.076zm92.746 36.907c8.24-.176 16.29-1.112 24.075-2.773h-26.851l2.776 2.773zm-29.625-2.773a128.294 128.294 0 0024.078 2.773l2.773-2.773h-26.851z" fill="#A2509E"/><path d="M71.16 128c0 31.42 25.469 56.889 56.888 56.889 31.417 0 56.89-25.47 56.89-56.889H71.158z" opacity=".4" fill="#A2509E"/></svg>
